public/cloud-icons/azure/compute/blockchain-application.svg

<?xml version="1.0" encoding="UTF-8" standalone="no"?>
<!-- Generated by Microsoft Visio, SVG Export Blockchain Application.svg Page-1 -->

<svg
   xmlns:dc="http://purl.org/dc/elements/1.1/"
   xmlns:cc="http://creativecommons.org/ns#"
   xmlns:rdf="http://www.w3.org/1999/02/22-rdf-syntax-ns#"
   xmlns:svg="http://www.w3.org/2000/svg"
   xmlns="http://www.w3.org/2000/svg"
   xmlns:sodipodi="http://sodipodi.sourceforge.net/DTD/sodipodi-0.dtd"
   xmlns:inkscape="http://www.inkscape.org/namespaces/inkscape"
   width="39.689999"
   height="56.697899"
   viewBox="0 0 39.689998 56.697896"
   xml:space="preserve"
   class="st6"
   version="1.1"
   id="svg64"
   sodipodi:docname="Blockchain Application.svg"
   style="font-size:12px;overflow:visible;color-interpolation-filters:sRGB;fill:none;fill-rule:evenodd;stroke-linecap:square;stroke-miterlimit:3"
   inkscape:version="0.92.5 (2060ec1f9f, 2020-04-08)"><metadata
   id="metadata68"><rdf:RDF><cc:Work
       rdf:about=""><dc:format>image/svg+xml</dc:format><dc:type
         rdf:resource="http://purl.org/dc/dcmitype/StillImage" /></cc:Work></rdf:RDF></metadata><sodipodi:namedview
   pagecolor="#ffffff"
   bordercolor="#666666"
   borderopacity="1"
   objecttolerance="10"
   gridtolerance="10"
   guidetolerance="10"
   inkscape:pageopacity="0"
   inkscape:pageshadow="2"
   inkscape:window-width="640"
   inkscape:window-height="480"
   id="namedview66"
   showgrid="false"
   inkscape:zoom="1.6426647"
   inkscape:cx="19.842402"
   inkscape:cy="28.347397"
   inkscape:window-x="0"
   inkscape:window-y="0"
   inkscape:window-maximized="0"
   inkscape:current-layer="svg64" />
	<style
   type="text/css"
   id="style2">
	<![CDATA[
		.st1 {fill:#773adc;stroke:none;stroke-linecap:butt;stroke-width:43.4881}
		.st2 {fill:#b796f9;stroke:none;stroke-linecap:butt;stroke-width:43.4881}
		.st3 {fill:#a67af4;stroke:none;stroke-linecap:butt;stroke-width:43.4881}
		.st4 {fill:#ffffff;stroke:none;stroke-linecap:butt;stroke-width:43.4881}
		.st5 {fill:url(#grad0-15);stroke:none;stroke-linecap:butt;stroke-width:43.4881}
		.st6 {fill:none;fill-rule:evenodd;font-size:12px;overflow:visible;stroke-linecap:square;stroke-miterlimit:3}
	]]>
	</style>

	<defs
   id="Patterns_And_Gradients">
		<linearGradient
   id="grad0-15"
   x1="-8.518863e-06"
   y1="130.86659"
   x2="20.551642"
   y2="130.86659"
   gradientTransform="scale(1.0539308,0.94882889)"
   gradientUnits="userSpaceOnUse">
			<stop
   offset="0"
   stop-color="#32bedd"
   stop-opacity="1"
   id="stop4" />
			<stop
   offset="0.36"
   stop-color="#34c1e0"
   stop-opacity="1"
   id="stop6" />
			<stop
   offset="0.63"
   stop-color="#3ccbe8"
   stop-opacity="1"
   id="stop8" />
			<stop
   offset="0.88"
   stop-color="#48dbf6"
   stop-opacity="1"
   id="stop10" />
			<stop
   offset="1"
   stop-color="#50e6ff"
   stop-opacity="1"
   id="stop12" />
		</linearGradient>
	</defs>
	<g
   id="g62"
   transform="translate(-43.4881,-43.484)">
		<title
   id="title16">Page-1</title>
		<g
   id="group12544-1"
   transform="translate(43.4881,-43.4881)">
			<title
   id="title18">Blockchain Application.12544</title>
			<g
   id="group12545-2">
				<title
   id="title20">layer1</title>
				<g
   id="shape12546-3"
   transform="translate(19.8425,-9.44882)">
					<title
   id="title22">polygon17</title>
					<path
   d="m 0,120.08 19.84,-11.81 v 23.56 L 0,143.67 Z"
   class="st1"
   id="path24"
   inkscape:connector-curvature="0"
   style="fill:#773adc;stroke:none;stroke-width:43.48809814;stroke-linecap:butt" />
				</g>
				<g
   id="shape12547-5"
   transform="translate(0,-33.0079)">
					<title
   id="title27">polygon19</title>
					<path
   d="M 19.84,119.98 39.69,131.83 19.84,143.67 0,131.83 Z"
   class="st2"
   id="path29"
   inkscape:connector-curvature="0"
   style="fill:#b796f9;stroke:none;stroke-width:43.48809814;stroke-linecap:butt" />
				</g>
				<g
   id="shape12548-7"
   transform="translate(0,-9.44882)">
					<title
   id="title32">polygon21</title>
					<path
   d="m 0,108.27 19.84,11.84 v 23.56 L 0,131.83 Z"
   class="st3"
   id="path34"
   inkscape:connector-curvature="0"
   style="fill:#a67af4;stroke:none;stroke-width:43.48809814;stroke-linecap:butt" />
				</g>
				<g
   id="shape12549-9"
   transform="translate(10.4921,-18.4249)">
					<title
   id="title37">path23</title>
					<path
   d="m 18.27,133.75 -8.73,-9.07 a 0.462889,0.472441 -180 0 0 -0.648485,0 L 0.09,133.75 a 0.43203,0.440945 -180 0 0 0.339405,0.7559 L 5.59,134.5 a 0.462889,0.472441 0 0 1 0.463037,0.47259 L 6.05,143.2 a 0.462889,0.472441 -180 0 0 0.43154,0.47259 L 11.91,143.67 a 0.462889,0.472441 -180 0 0 0.524854,-0.47259 L 12.44,134.85 a 0.462889,0.472441 0 0 1 0.431545,-0.47259 L 18.02,134.38 a 0.43203,0.440945 -180 0 0 0.247262,-0.62973 z"
   class="st4"
   id="path39"
   inkscape:connector-curvature="0"
   style="fill:#ffffff;stroke:none;stroke-width:43.48809814;stroke-linecap:butt" />
				</g>
				<g
   id="group12550-11"
   transform="translate(8.76404)">
					<title
   id="title42">g31</title>
					<g
   id="shape12551-12">
						<title
   id="title44">rect25</title>
						<path
   d="m 0,142.5 a 1.14182,1.16538 -180 0 0 1.14,1.17 h 19.38 a 1.14182,1.16538 -180 0 0 1.14,-1.17 v -17.16 a 1.14182,1.16538 -180 0 0 -1.14,-1.17 H 1.14 A 1.14182,1.16538 -180 0 0 0,125.34 Z"
   class="st5"
   id="path46"
   inkscape:connector-curvature="0"
   style="fill:url(#grad0-15);stroke:none;stroke-width:43.48809814;stroke-linecap:butt" />
					</g>
					<g
   id="shape12552-16"
   transform="translate(2.06919,-4.13044)">
						<title
   id="title49">path27</title>
						<path
   d="M 6.23,142.45 1.88,138 6.14,133.66 a 0.308593,0.314961 -180 0 0 0,-0.44095 L 5.46,132.52 a 0.370311,0.377953 -180 0 0 -0.43203,0 L 0.09,137.56 a 0.678904,0.692913 -180 0 0 0,0.69291 0.555467,0.566929 -180 0 0 0,0.22048 l 5,5.10661 a 0.308593,0.314961 -180 0 0 0.43203,0 L 6.2,142.89 a 0.308593,0.314961 -180 0 0 0.030859,-0.44095 z"
   class="st4"
   id="path51"
   inkscape:connector-curvature="0"
   style="fill:#ffffff;stroke:none;stroke-width:43.48809814;stroke-linecap:butt" />
					</g>
					<g
   id="shape12553-18"
   transform="translate(14.0762,-4.13044)">
						<title
   id="title54">path29</title>
						<path
   d="m 6.26,137.56 -4.91,-5.04 a 0.370311,0.377953 -180 0 0 -0.43203,0 L 0.24,133.22 a 0.308593,0.314961 -180 0 0 0,0.44094 L 4.47,138 0.09,142.45 a 0.308593,0.314961 -180 0 0 0,0.44094 L 0.77,143.58 a 0.308593,0.314961 -180 0 0 0.43203,0 L 6.26,138.35 a 0.617186,0.629921 -180 0 0 0,-0.7874 z"
   class="st4"
   id="path56"
   inkscape:connector-curvature="0"
   style="fill:#ffffff;stroke:none;stroke-width:43.48809814;stroke-linecap:butt" />
					</g>
				</g>
			</g>
		</g>
	</g>
</svg>

<svg xmlns="http://www.w3.org/2000/svg" xml:space="preserve" width="39.69" height="56.698" style="font-size:12px;overflow:visible;color-interpolation-filters:sRGB;fill-rule:evenodd;stroke-linecap:square;stroke-miterlimit:3" viewBox="0 0 39.69 56.698"><defs><linearGradient id="a" x1="0" x2="20.552" y1="130.867" y2="130.867" gradientTransform="scale(1.05393 .94883)" gradientUnits="userSpaceOnUse"><stop offset="0" stop-color="#32bedd"/><stop offset=".36" stop-color="#34c1e0"/><stop offset=".63" stop-color="#3ccbe8"/><stop offset=".88" stop-color="#48dbf6"/><stop offset="1" stop-color="#50e6ff"/></linearGradient></defs><g transform="translate(-43.488 -43.484)"><title>Page-1</title><g transform="translate(43.488 -43.488)"><title>Blockchain Application.12544</title><title>layer1</title><g transform="translate(19.843 -9.449)"><title>polygon17</title><path d="m0 120.08 19.84-11.81v23.56L0 143.67Z" style="fill:#773adc;stroke:none;stroke-width:43.48809814;stroke-linecap:butt"/></g><g transform="translate(0 -33.008)"><title>polygon19</title><path d="m19.84 119.98 19.85 11.85-19.85 11.84L0 131.83Z" style="fill:#b796f9;stroke:none;stroke-width:43.48809814;stroke-linecap:butt"/></g><g transform="translate(0 -9.449)"><title>polygon21</title><path d="m0 108.27 19.84 11.84v23.56L0 131.83Z" style="fill:#a67af4;stroke:none;stroke-width:43.48809814;stroke-linecap:butt"/></g><g transform="translate(10.492 -18.425)"><title>path23</title><path d="m18.27 133.75-8.73-9.07a.463.472-180 0 0-.648 0L.09 133.75a.432.44-180 0 0 .34.756l5.16-.006a.463.472 0 0 1 .463.473L6.05 143.2a.463.472-180 0 0 .432.473l5.428-.003a.463.472-180 0 0 .525-.473l.005-8.347a.463.472 0 0 1 .432-.473l5.148.003a.432.44-180 0 0 .247-.63z" style="fill:#fff;stroke:none;stroke-width:43.48809814;stroke-linecap:butt"/></g><g transform="translate(8.764)"><title>g31</title><title>rect25</title><path d="M0 142.5a1.142 1.165-180 0 0 1.14 1.17h19.38a1.142 1.165-180 0 0 1.14-1.17v-17.16a1.142 1.165-180 0 0-1.14-1.17H1.14A1.142 1.165-180 0 0 0 125.34Z" style="fill:url(#a);stroke:none;stroke-width:43.48809814;stroke-linecap:butt"/><g transform="translate(2.07 -4.13)"><title>path27</title><path d="M6.23 142.45 1.88 138l4.26-4.34a.309.315-180 0 0 0-.441l-.68-.699a.37.378-180 0 0-.432 0L.09 137.56a.679.693-180 0 0 0 .693.555.567-180 0 0 0 .22l5 5.107a.309.315-180 0 0 .432 0l.678-.69a.309.315-180 0 0 .03-.441z" style="fill:#fff;stroke:none;stroke-width:43.48809814;stroke-linecap:butt"/></g><g transform="translate(14.076 -4.13)"><title>path29</title><path d="m6.26 137.56-4.91-5.04a.37.378-180 0 0-.432 0l-.678.7a.309.315-180 0 0 0 .44L4.47 138l-4.38 4.45a.309.315-180 0 0 0 .44l.68.69a.309.315-180 0 0 .432 0l5.058-5.23a.617.63-180 0 0 0-.787z" style="fill:#fff;stroke:none;stroke-width:43.48809814;stroke-linecap:butt"/></g></g></g></g></svg>
